src/Assets/icons/logo.svg

<svg width="122" height="25" viewBox="0 0 122 25" fill="none" xmlns="http://www.w3.org/2000/svg">
<g clip-path="url(#clip0_201_2)">
<path d="M121.784 18.8714V21.8905H119.251C116.549 21.8056 115.105 20.3462 115.105 17.6051V10.7097H113.336V8.06125H115.105V5.09619H118.842V8.03037H121.699V10.6711H118.842V17.2344C118.842 18.1224 119.019 18.8328 120.386 18.8328L121.784 18.8714Z" fill="white"/>
<path d="M98.4416 15.0029V14.8021C98.4011 13.914 98.5364 13.0267 98.8395 12.191C99.1427 11.3552 99.6078 10.5876 100.208 9.93193C100.809 9.2763 101.532 8.74561 102.338 8.37027C103.144 7.99493 104.016 7.78232 104.904 7.74463C105.082 7.74463 105.267 7.74463 105.445 7.74463C108.974 7.74463 112.07 9.79855 112.07 14.694V15.7364H102.264C102.364 17.9911 103.584 19.2651 105.638 19.2651C107.406 19.2651 108.232 18.493 108.472 17.3656H112.001C111.568 20.3075 109.221 21.9445 105.507 21.9445C101.43 21.9136 98.4416 19.3346 98.4416 15.0029ZM108.395 13.3736C108.263 11.3197 107.229 10.3313 105.43 10.3313C103.63 10.3313 102.596 11.4432 102.341 13.3736H108.395Z" fill="white"/>
<path d="M83.1838 15.0029V14.8021C83.1433 13.9153 83.278 13.0291 83.5802 12.1944C83.8824 11.3596 84.3462 10.5926 84.9449 9.9372C85.5437 9.28177 86.2658 8.75078 87.0699 8.37456C87.874 7.99835 88.7444 7.78429 89.6312 7.74463C89.8088 7.74463 89.9942 7.74463 90.1717 7.74463C93.7005 7.74463 96.8045 9.79855 96.8045 14.694V15.7364H87.0059C87.1063 17.9911 88.3263 19.2651 90.3802 19.2651C92.1485 19.2651 92.9747 18.493 93.214 17.3656H96.7428C96.3026 20.3075 93.9553 21.9445 90.2412 21.9445C86.172 21.9136 83.1838 19.3346 83.1838 15.0029ZM93.1368 13.3736C93.0055 11.3197 91.9709 10.3313 90.1717 10.3313C88.3726 10.3313 87.3688 11.4741 87.0831 13.3659L93.1368 13.3736Z" fill="white"/>
<path d="M61.7725 8.03027H65.7259L68.1427 17.188L70.7912 8.03027H73.8798L76.2735 17.188L78.8216 8.03027H82.443L78.1498 21.6356H74.4435L72.127 13.0956L69.6484 21.6356H65.8958L61.7725 8.03027Z" fill="white"/>
<path d="M49.209 17.358H52.7377C52.8999 18.5858 53.5099 19.2884 55.1314 19.2884C56.583 19.2884 57.2548 18.7402 57.2548 17.8059C57.2548 16.8716 56.4827 16.4778 54.506 16.1998C50.8846 15.6516 49.487 14.6092 49.487 11.953C49.487 9.11918 52.0814 7.71387 54.892 7.71387C57.9111 7.71387 60.189 8.81032 60.5133 11.9375H57.0309C57.0087 11.6958 56.9388 11.4608 56.8252 11.2462C56.7117 11.0317 56.5567 10.8417 56.3693 10.6873C56.1819 10.533 55.9658 10.4173 55.7335 10.3469C55.5011 10.2766 55.2571 10.2529 55.0156 10.2774H54.8997C53.6797 10.2774 52.9694 10.8488 52.9694 11.6827C52.9694 12.5167 53.6257 12.8796 55.6178 13.1653C58.9999 13.6749 60.8916 14.532 60.8916 17.443C60.8916 20.354 58.7528 21.9137 55.17 21.9137C51.5872 21.9137 49.3094 20.2999 49.209 17.358Z" fill="white"/>
<path d="M34.2139 8.03049H37.9511V10.1848C38.3723 9.39406 39.0117 8.74088 39.7933 8.30288C40.5748 7.86487 41.4657 7.66045 42.3601 7.7139C45.0085 7.7139 46.9312 9.3277 46.9312 13.0109V21.6667H43.2403V13.5514C43.2403 11.7059 42.5222 10.8257 40.8544 10.8257C40.5019 10.795 40.1467 10.8342 39.8094 10.9411C39.4721 11.048 39.1593 11.2205 38.8888 11.4487C38.6183 11.6768 38.3955 11.9561 38.2333 12.2706C38.0711 12.5851 37.9725 12.9285 37.9434 13.2811C37.9241 13.4453 37.9241 13.6111 37.9434 13.7753V21.6358H34.2139V8.03049Z" fill="white"/>
<path d="M27.0022 4.60972C26.9887 4.2371 27.086 3.86885 27.2819 3.55157C27.4777 3.2343 27.7633 2.98228 28.1025 2.82742C28.4417 2.67256 28.8192 2.62182 29.1872 2.68162C29.5553 2.74143 29.8973 2.90909 30.17 3.16339C30.4427 3.41768 30.6338 3.74717 30.7191 4.11014C30.8044 4.4731 30.7801 4.85323 30.6493 5.20238C30.5184 5.55153 30.287 5.85401 29.9841 6.07153C29.6813 6.28904 29.3207 6.4118 28.948 6.42428H28.8785C28.6473 6.43891 28.4154 6.40774 28.1961 6.33255C27.9769 6.25736 27.7747 6.13963 27.6011 5.98611C27.4275 5.83258 27.2859 5.6463 27.1845 5.43793C27.083 5.22956 27.0237 5.00321 27.0099 4.77187C27.0035 4.71807 27.0009 4.66388 27.0022 4.60972ZM27.0022 8.03035H30.778V21.6357H27.0177L27.0022 8.03035Z" fill="white"/>
<path d="M12.7715 3.04224H24.709V6.33932H16.9874V11.2579H23.1029V14.4315H16.9797V21.6357H12.7715V3.04224Z" fill="white"/>
<path d="M5.56722 9.12683C5.56722 10.2928 5.56722 11.7135 3.96114 12.2927C5.60582 12.8563 5.56722 14.0532 5.56722 15.3041V19.937C5.56722 20.8172 5.92241 21.35 6.55557 21.4813C6.6947 21.5282 6.84127 21.5491 6.98797 21.543H8.53228V24.6316H5.98418C3.2662 24.6316 1.76823 23.0873 1.76823 20.2227V14.7404C1.74895 14.4589 1.62485 14.1949 1.42043 14.0005C1.216 13.8061 0.946116 13.6954 0.664051 13.6903H0V10.98H0.664051C0.951744 10.9762 1.22693 10.8618 1.43252 10.6605C1.63812 10.4592 1.75833 10.1865 1.76823 9.89899V4.33949C1.76823 1.52114 3.23532 0 5.98418 0H8.55544V3.04228H7.01114C6.86426 3.0427 6.71835 3.06615 6.57873 3.11177C5.94557 3.27392 5.59038 3.79899 5.59038 4.65608L5.56722 9.12683Z" fill="white"/>
</g>
<defs>
<clipPath id="clip0_201_2">
<rect width="122" height="24.7089" fill="white"/>
</clipPath>
</defs>
</svg>

<svg xmlns="http://www.w3.org/2000/svg" width="122" height="25" fill="none" xmlns:v="https://vecta.io/nano"><g clip-path="url(#A)" fill="#fff"><path d="M121.784 18.871v3.019h-2.533c-2.702-.085-4.146-1.544-4.146-4.285V10.71h-1.769V8.061h1.769V5.096h3.737V8.03h2.857v2.641h-2.857v6.563c0 .888.177 1.598 1.544 1.598l1.398.039zm-23.342-3.868v-.201a6.77 6.77 0 0 1 .398-2.611 6.76 6.76 0 0 1 3.498-3.821 6.77 6.77 0 0 1 2.566-.626h.541c3.529 0 6.625 2.054 6.625 6.949v1.042h-9.806c.1 2.255 1.32 3.529 3.374 3.529 1.768 0 2.594-.772 2.834-1.899h3.529c-.433 2.942-2.78 4.579-6.494 4.579-4.077-.031-7.065-2.61-7.065-6.942zm9.953-1.629c-.132-2.054-1.166-3.042-2.965-3.042s-2.834 1.112-3.089 3.042h6.054zm-25.211 1.629v-.201a6.75 6.75 0 0 1 .396-2.608c.302-.835.766-1.602 1.365-2.257a6.78 6.78 0 0 1 2.125-1.563c.804-.377 1.674-.59 2.561-.63h.54c3.529 0 6.633 2.054 6.633 6.949v1.042h-9.799c.1 2.255 1.32 3.529 3.374 3.529 1.768 0 2.594-.772 2.834-1.899h3.529c-.44 2.942-2.788 4.579-6.502 4.579-4.069-.031-7.057-2.61-7.057-6.942zm9.953-1.629c-.131-2.054-1.166-3.042-2.965-3.042s-2.803 1.143-3.089 3.035l6.054.008zM61.773 8.03h3.953l2.417 9.158 2.648-9.158h3.089l2.394 9.158 2.548-9.158h3.621L78.15 21.636h-3.706l-2.317-8.54-2.479 8.54h-3.753L61.773 8.03zm-12.564 9.328h3.529c.162 1.228.772 1.93 2.394 1.93 1.452 0 2.123-.548 2.123-1.482s-.772-1.328-2.749-1.606c-3.621-.548-5.019-1.591-5.019-4.247 0-2.834 2.594-4.239 5.405-4.239 3.019 0 5.297 1.096 5.621 4.224h-3.482a1.82 1.82 0 0 0-.206-.691 1.84 1.84 0 0 0-1.81-.968H54.9c-1.22 0-1.93.571-1.93 1.405s.656 1.197 2.648 1.483c3.382.51 5.274 1.367 5.274 4.278s-2.139 4.471-5.722 4.471-5.861-1.614-5.961-4.556zM34.214 8.03h3.737v2.154a4.68 4.68 0 0 1 4.409-2.471c2.648 0 4.571 1.614 4.571 5.297v8.656H43.24v-8.115c0-1.845-.718-2.726-2.386-2.726a2.68 2.68 0 0 0-1.045.115c-.337.107-.65.279-.921.508s-.493.507-.656.822-.261.658-.29 1.011a2.15 2.15 0 0 0 0 .494v7.861h-3.729V8.03zm-7.212-3.42c-.013-.373.084-.741.28-1.058s.481-.569.821-.724.717-.206 1.085-.146.71.227.983.482.464.584.549.947.061.743-.07 1.092a1.88 1.88 0 0 1-.665.869 1.89 1.89 0 0 1-1.036.353h-.07a1.76 1.76 0 0 1-1.868-1.652 1.14 1.14 0 0 1-.008-.162zm0 3.421h3.776v13.605h-3.76L27.002 8.03zm-14.23-4.989H24.71v3.297h-7.722v4.919h6.116v3.174H16.98v7.204h-4.208V3.042zM5.567 9.127c0 1.166 0 2.587-1.606 3.166 1.645.564 1.606 1.761 1.606 3.011v4.633c0 .88.355 1.413.988 1.544a1.2 1.2 0 0 0 .432.062h1.544v3.089H5.984c-2.718 0-4.216-1.544-4.216-4.409V14.74c-.019-.281-.143-.545-.348-.74s-.474-.305-.756-.31H0v-2.71h.664a1.12 1.12 0 0 0 1.104-1.081v-5.56C1.768 1.521 3.235 0 5.984 0h2.571v3.042H7.011c-.147 0-.293.024-.432.069-.633.162-.988.687-.988 1.544l-.023 4.471z"/></g><defs><clipPath id="A"><path fill="#fff" d="M0 0h122v24.709H0z"/></clipPath></defs></svg>
